X: 1
T: Tralee Gaol
R: polka
M: 2/4
L: 1/8
K: Gmaj
eA AB/d/|e>d Bd|eA AB/A/ |G>A Bd|
eA AB/d/|e>d Bd|ed gB |A2 A2:|
ea ag/a/|b>a ge|dB gB |d/c/B/A/ GE|
ea ag/a/|b>a ge|ed gB |A2 A2:|


Tune 1113	Setting 14370

